X: 21873
T: Kiss Me Kate
R: reel
M: 4/4
K: Gmajor
G2Bd gdBG|DEGB AE~E2|~G2 (3Bcd gdBd|ezAc BGGF|
G2Bd ~g3G|DEGB AE~E2|~G2 (3Bcd gdBd|ecAc BG~g2||
fzag fddf|~g3a (3bag eg|fzag fdde|gdef ~g3z|
gbaf gbaf|gzag fdde|fded fded|cdef gedz||

